X:1
T:An tSeanchailleach Gallda
T:The Old Foreign Hag
R:jig
M:6/8
K:Ador
|: G |"Am" Agf edc |"G" BAG Bcd |"Am" AAA efg |"G" dBG "Am" A2G |
"Am" Agf edc |"G" BAG Bcd |"Am" ccc "C"efg |"D" dBG "(F)Am" A2 :|
|: G |"Am" Aaa aga |"G(Em)" bga ged |"Am" eaa aga |"Em" bga g2d |
"Am" eaa aga | "G" bga "Em"ged |"Am" cde "C"gfe |"D" dBG "(F)Am"  A2 :|
